public/icons/reverse-indent.svg

<svg xmlns="http://www.w3.org/2000/svg" fill="currentColor" viewBox="0 0 24 24">
  <g class="reverse-indent">
    <path d="M10.889 17.556H22v-2.223H10.889v2.223zM2 12l4.444 4.444V7.556L2 12zm0 10h20v-2.222H2V22zM2 2v2.222h20V2H2zm8.889 6.667H22V6.444H10.889v2.223zm0 4.444H22V10.89H10.889v2.222z" class="Vector"/>
  </g>
</svg>

<svg width="24" height="24" viewBox="0 0 24 24" xmlns="http://www.w3.org/2000/svg"><path d="M10.889,17.556 L22,17.556 L22,15.333 L10.889,15.333 L10.889,17.556 Z M2,12 L6.444,16.444 L6.444,7.556 L2,12 Z M2,22 L22,22 L22,19.778 L2,19.778 L2,22 Z M2,2 L2,4.222 L22,4.222 L22,2 L2,2 Z M10.889,8.667 L22,8.667 L22,6.444 L10.889,6.444 L10.889,8.667 Z M10.889,13.111 L22,13.111 L22,10.89 L10.889,10.89 L10.889,13.112 L10.889,13.111 Z"/></svg>
